svg/fluentui-system-icons/ic_fluent_tag_off_20_regular.svg

<svg width="20" height="20" viewBox="0 0 20 20" fill="none" xmlns="http://www.w3.org/2000/svg">
<path d="M5.7853 6.49241L2.14645 2.85355C1.95118 2.65829 1.95118 2.34171 2.14645 2.14645C2.34171 1.95118 2.65829 1.95118 2.85355 2.14645L17.8536 17.1464C18.0488 17.3417 18.0488 17.6583 17.8536 17.8536C17.6583 18.0488 17.3417 18.0488 17.1464 17.8536L13.5586 14.2657L10.7972 17.0271C10.0161 17.8082 8.7498 17.8082 7.96875 17.0271L3.02036 12.0788C2.2386 11.297 2.23941 10.0293 3.02216 9.24852L5.7853 6.49241ZM12.8515 13.5586L6.49241 7.19952L3.72837 9.95653C3.33699 10.3469 3.33659 10.9808 3.72746 11.3716L8.67586 16.32C9.06638 16.7106 9.69955 16.7106 10.0901 16.32L12.8515 13.5586ZM16.7209 9.68923L14.2656 12.1445L14.9727 12.8516L17.428 10.3963C17.8038 10.0205 18.0146 9.51063 18.0138 8.97917L18.0065 4.02911C18.0049 2.93081 17.1179 2.0393 16.0196 2.0321L11.1292 2.00004C10.5951 1.99654 10.0818 2.20681 9.7037 2.58399L7.20124 5.08007L7.90835 5.78718L10.4099 3.29199C10.599 3.1034 10.8556 2.99827 11.1227 3.00002L16.013 3.03208C16.5622 3.03568 17.0057 3.48143 17.0065 4.03058L17.0138 8.98065C17.0142 9.24637 16.9088 9.50133 16.7209 9.68923ZM14 7C14.5523 7 15 6.55228 15 6C15 5.44772 14.5523 5 14 5C13.4477 5 13 5.44772 13 6C13 6.55228 13.4477 7 14 7Z" fill="#212121"/>
</svg>

<svg xmlns="http://www.w3.org/2000/svg" width="20" height="20"><path d="M5.785 6.492 2.146 2.854a.5.5 0 1 1 .708-.708l15 15a.5.5 0 0 1-.708.708l-3.587-3.588-2.762 2.761a2 2 0 0 1-2.828 0L3.02 12.08a2 2 0 0 1 .002-2.83l2.763-2.757Zm7.066 7.067-6.359-6.36-2.764 2.758a1 1 0 0 0 0 1.415l4.948 4.948a1 1 0 0 0 1.414 0l2.761-2.761Zm3.87-3.87-2.455 2.456.707.707 2.455-2.456a2 2 0 0 0 .586-1.417l-.008-4.95a2 2 0 0 0-1.986-1.997L11.13 2a2 2 0 0 0-1.426.584L7.2 5.08l.707.707 2.502-2.495A1 1 0 0 1 11.123 3l4.89.032a1 1 0 0 1 .993.999l.008 4.95a1 1 0 0 1-.293.708ZM14 7a1 1 0 1 0 0-2 1 1 0 0 0 0 2Z"/></svg>
